X: 5710
T: Cadair Idris
R: waltz
M: 3/4
K: Dmajor
|:A/B/c|d2 A2 F2|D3 E FD|G2 B2 ed|c2 A2- Ac|
d2 A/B/A F2|G3 A B2|A2 d2 c2|d4:|
|:de|f2 de fd|e/f/e c2 A2|d2 B>c dB|c2 B/c/B A2|
f>e d2 f/e/d|e/f/e c2 A2|d3 c B2|A4 A/B/c|
d2 A3 F|D3 E F2|G2 B2 e2|c/d/c A2 Bc|
d2 A2 F2|G3 A BG|A2 d/e/d c2|d4:|

